X:1
T:Title
%%score { 1 | ( 2 3 ) }
L:1/8
M:9/8
K:C
V:1 treble nm="Grand Piano"
V:2 bass 
V:3 bass 
V:1
 z3 z3[Q:1/4=100] EF^F | [EG]3 E3 cBA | [EG]3 E3 D2 E | [DF]3 D3 AG^F |[M:3/4] [EG]6 | %5
[M:3/8] EF^F |[M:9/8] [EG]3 E3 cBA | [EG]3 E3 EFE | [B,D]3 G3 [A,^F]GA |[M:3/4] [B,G]6 | %10
[M:3/8] FEF |[M:9/8] [B,D]3 A3 G^FG | [CE]3 G3 GAB | [Ec]3- [Ec]2 c BcA |[M:3/4] [B,G]3 [DF]3 | %15
[M:3/8] EF^F |[M:9/8] [EG]3 c3 cBc | .[Fd]3 A3 cBA | [EG]2 ^F [EG]3 [D=F]GF |[M:3/4] [CE]6 | %20
[M:3/8] [EG]A[CEG] |[M:9/8] [B,DF]3 [G,B,D]3 .[B,FA]2 [B,FA] | [CEG]3 [G,CE]3 [CE][DF][CE] | %23
 [B,D]3 [B,A]3 .[B,G]2 [G,B,G] |[M:3/4] E3 G3 |[M:3/8] GAB |[M:9/8] [Ec]3 [Gc]3 dBA | %27
 [EG]3 E3 EFE | [B,D]3 [B,A]3 .[B,G]2[K:bass] [F,B,D] |[M:3/4] [E,C]6 |] %30
V:2
 z3 z3 CD_E | z3 C3[K:treble] EGF | z3 C3 B,2 B, | z3 B,3 B,E_E |[M:3/4] C,E, G, C,3 | %5
[M:3/8] CD_E |[M:9/8] z3[K:treble] C3 EGF | z3 C3 CDC | z3 B,3 z B,C |[M:3/4] G,,B,, D, G,3 | %10
[M:3/8] D^CD |[M:9/8] z3[K:treble] F3 E_E=E | z3 E3[K:treble] EFD | C,3 z2 E D2 C | %14
[M:3/4] G,,B,, D, G,3 |[M:3/8] CD_E |[M:9/8] z3 E3 EDE | z2[K:treble] B F3 AGF | z2 _E G,3 z =ED | %19
[M:3/4] C,E, G, C,3 |[M:3/8] z FC, |[M:9/8] G,,3 G,,3 z[K:treble] B[K:bass]G,, | %22
 C,3 C,3 [C,G,]2 [C,G,] | [G,,G,]3 [G,,F,]3 z AG,, |[M:3/4] [G,C]3[K:treble] [CE]3 | %25
[M:3/8] B,[C^F][G,D=F] |[M:9/8][K:bass] [C,C]3 [E,_B,]3 [F,A,F]2 [F,CF] | %27
 [C,C]3 [C,G,C]3 CD[C,G,C] | [G,,G,]3 [G,,F,]3 z FG,, |[M:3/4] C,6 |] %30
V:3
 x9 | C,6[K:treble] z3 | C,6 z3 | G,,6 z3 |[M:3/4] x6 |[M:3/8] x3 |[M:9/8] C,6[K:treble] z3 | %7
 C,6 z3 | D,6 [D,,D,]3 |[M:3/4] x6 |[M:3/8] x3 |[M:9/8] G,,6[K:treble] z3 | C,6[K:treble] z3 | %13
 z3 A,,3 D,3 |[M:3/4] x6 |[M:3/8] x3 |[M:9/8] C,6 z3 | F,,6[K:treble] z3 | G,,3 z3 G,,3 | %19
[M:3/4] x6 |[M:3/8] [C,C]2 z |[M:9/8] z3 z3 .G,,3[K:treble][K:bass] | x9 | z3 z3 .[G,,D,]3 | %24
[M:3/4] C,6[K:treble] |[M:3/8] G,2 z |[M:9/8][K:bass] x9 | z3 z3 .[C,G,]3 | z3 z3 .[G,,D,]3 | %29
[M:3/4] x6 |] %30

